X: 27312
T: Missouri
R: jig
M: 6/8
K: Cmajor
|:edc Bcd|c2B A2z|c2 B ABc|B2^G E2z|
edc Bcd|cBA Bcd|cBA ^GAB|A2z a2z:|
g2z g2z|gec gec|a2z a2z|afc afc|
g2z g2z|gec gec|GBd gdB|G2z g2z|
g2z g2z|gec gec|a2z a2z|afc afc|
gec Gce|fdB GAB|c2G AGE|C2z z3||
K:G
|:B2z d2z|ecA ege|dBG GAB|Acd Dcd|
B2z d2z|ecA ege|dBG DEF|G2z g2z:|

